icon-svg/etc.svg

<svg xmlns="http://www.w3.org/2000/svg" fill="#44739e" viewBox="0 0 24 24"><path d="M12 22a10 10 0 1 1 10-10 10 10 0 0 1-10 10m4.208-10L12 9.619 7.792 12 12 14.363ZM12 15.154q-2.186-1.236-4.375-2.47c1.3 2.03 2.912 4.538 4.375 6.815 1.463-2.276 3.076-4.785 4.375-6.815q-2.188 1.233-4.375 2.47m0-6.3 4.375 2.446L12 4.5l-4.375 6.791L12 8.849Z"/></svg>

<?xml version="1.0" encoding="UTF-8"?>
<svg width="24px" fill="#44739e" height="24px" viewBox="0 0 24 24" version="1.1" xmlns="http://www.w3.org/2000/svg" xmlns:xlink="http://www.w3.org/1999/xlink">
            <path d="M 12,22 A 10,10 0 1 1 22,12 10,10 0 0 1 12,22 Z M 16.208,12 12,9.619 7.792,12 12,14.363 Z M 12,15.154 Q 9.814,13.918 7.625,12.684 c 1.3,2.03 2.912,4.538 4.375,6.815 1.463,-2.276 3.076,-4.785 4.375,-6.815 Q 14.187,13.917 12,15.154 Z M 12,8.854 16.375,11.3 12,4.5 7.625,11.291 12,8.849 Z"/>

</svg>
